icons/megaphone-16.svg

<svg width="16" height="16" viewBox="0 0 16 16" fill="none" xmlns="http://www.w3.org/2000/svg">
<g clip-path="url(#clip0)">
<path fill-rule="evenodd" clip-rule="evenodd" d="M3.25 9C3.66421 9 4 9.33579 4 9.75C4 11.8922 4.45605 13.5775 4.73341 14.4032C4.74196 14.4287 4.75745 14.4496 4.78268 14.4668C4.80953 14.4852 4.84955 14.5 4.89987 14.5H6.21124C6.29577 14.5 6.39161 14.4576 6.46909 14.3485C6.54881 14.2363 6.57421 14.0983 6.54355 13.9819C6.27474 12.9617 6 11.4934 6 9.75C6 9.33579 6.33579 9 6.75 9C7.16421 9 7.5 9.33579 7.5 9.75C7.5 11.3381 7.75065 12.676 7.99405 13.5998C8.28723 14.7125 7.48961 16 6.21124 16H4.89987C4.2137 16 3.54951 15.5894 3.31148 14.8808C2.99865 13.9495 2.5 12.0987 2.5 9.75C2.5 9.33579 2.83579 9 3.25 9Z" fill="black"/>
<path fill-rule="evenodd" clip-rule="evenodd" d="M0 6C0 3.79086 1.79086 2 4 2H6.75C7.16421 2 7.5 2.33579 7.5 2.75V9.25C7.5 9.66422 7.16421 10 6.75 10H4C1.79086 10 0 8.20914 0 6ZM4 3.5C2.61929 3.5 1.5 4.61929 1.5 6C1.5 7.38072 2.61929 8.5 4 8.5H6V3.5H4Z" fill="black"/>
<path fill-rule="evenodd" clip-rule="evenodd" d="M15.5903 0.0816671C15.8417 0.209675 16 0.46791 16 0.750003V11.25C16 11.5321 15.8417 11.7903 15.5903 11.9183C15.3399 12.0459 15.0392 12.0226 14.8113 11.8583C14.8107 11.8579 14.8101 11.8574 14.8094 11.857L14.8104 11.8577L14.796 11.8478C14.7812 11.8377 14.7557 11.8207 14.7196 11.7978C14.6473 11.7521 14.5324 11.6828 14.3744 11.5976C14.0585 11.4272 13.57 11.1931 12.905 10.9567C11.5763 10.4842 9.53613 10 6.75 10C6.33579 10 6 9.66422 6 9.25C6 8.83579 6.33579 8.5 6.75 8.5C9.71387 8.5 11.9237 9.01577 13.4075 9.54334C13.8312 9.69398 14.1951 9.84538 14.5 9.98566V2.01434C14.1951 2.15463 13.8312 2.30603 13.4075 2.45666C11.9237 2.98423 9.71387 3.5 6.75 3.5C6.33579 3.5 6 3.16422 6 2.75C6 2.33579 6.33579 2 6.75 2C9.53613 2 11.5763 1.51577 12.905 1.04334C13.57 0.806885 14.0585 0.572777 14.3744 0.402388C14.5324 0.317181 14.6473 0.247883 14.7196 0.202165C14.7557 0.179306 14.7812 0.162343 14.796 0.152237L14.8104 0.14234L14.8094 0.143046C15.0375 -0.0225071 15.3392 -0.0462364 15.5903 0.0816671ZM14.8104 0.14234L14.8116 0.141475C14.8116 0.141475 14.8112 0.141732 14.8104 0.14234ZM15.25 11.25C14.8089 11.8566 14.8092 11.8568 14.8094 11.857C14.8092 11.8568 14.8096 11.8571 14.8094 11.857L15.25 11.25Z" fill="black"/>
</g>
<defs>
<clipPath id="clip0">
<rect width="16" height="16" fill="white"/>
</clipPath>
</defs>
</svg>

<svg xmlns="http://www.w3.org/2000/svg" width="16" height="16" viewBox="0 0 16 16"><g fill-rule="evenodd"><path d="M3.25 9a.75.75 0 01.75.75c0 2.142.456 3.828.733 4.653a.121.121 0 00.05.064.207.207 0 00.117.033h1.31c.085 0 .18-.042.258-.152a.448.448 0 00.075-.366A16.74 16.74 0 016 9.75a.75.75 0 011.5 0c0 1.588.25 2.926.494 3.85.293 1.113-.504 2.4-1.783 2.4H4.9c-.686 0-1.35-.41-1.589-1.12A16.42 16.42 0 012.5 9.75.75.75 0 013.25 9z"/><path d="M0 6a4 4 0 014-4h2.75a.75.75 0 01.75.75v6.5a.75.75 0 01-.75.75H4a4 4 0 01-4-4zm4-2.5a2.5 2.5 0 000 5h2v-5H4z"/><path d="M15.59.082A.75.75 0 0116 .75v10.5a.75.75 0 01-1.189.608l-.002-.001h.001l-.014-.01a5.829 5.829 0 00-.422-.25 10.58 10.58 0 00-1.469-.64C11.576 10.484 9.536 10 6.75 10a.75.75 0 110-1.5c2.964 0 5.174.516 6.658 1.043.423.151.787.302 1.092.443V2.014c-.305.14-.669.292-1.092.443C11.924 2.984 9.713 3.5 6.75 3.5a.75.75 0 110-1.5c2.786 0 4.826-.484 6.155-.957.665-.236 1.154-.47 1.47-.64a5.82 5.82 0 00.421-.25l.014-.01a.75.75 0 01.78-.061zm-.78.06zm.44 11.108l-.44.607.44-.607z"/></g></svg>
